X:100
T:B051B- Callino (Wm. Ballat lute bk, modern notation)
Q:1/4=120
L:1/8
M:6/8
K:C
E2EE2E|F2FE3|D2DD2D|E3/2D/2ED3|\
E3/2F/2G G3/2F/2E|D3/2E/2D c3|C2D E3/2D/2E|D3/2C/2Dc3|]

